!!!OTL: Wiedersehen an der Bahre.
!!!OTL-incipit:'Schatz, ach Schatz, und ich muss fort,
!!!ARE: Europa, Mitteleuropa, Deutschland (BRD), Rheinpfalz, Hunsrueck
!!!YOR: 2, S. 83
!!    ????
!!!SCT: Q0056I
!!!YEM: Copyright 1995, estate of Helmut Schaffrath.
**kern	**text
*ICvox	*
*M3/4	*
*k[b-]	*
*F:	*
!LO:TX:a:t=93 (98) Rheinpfalʒ, Hunsrück	!
!LO:TX:a:t=Melodietafel II.	!
{8f	'Schatʒ,
8a	ach
=1	=1
4.cc	Schatʒ,
8cc	und
8dd	ich
8ee	muß
=2	=2
4.ff}	fort,
{8cc	muß
8dd	in
8ee	die
=3	=3
4ff	Frem-
4ee	-de
4dd	ʒie-
=4	=4
4.cc}	-hen.
{8cc	Er
8ff	verſprach,
8ee	ihr
=5	=5
4.dd	all-
8cc	-ʒeit
8b-	treu
8dd	ʒu
=6	=6
4.cc}	ſein,
{8a	ſie
8f	nim-
8g	-mer
=7	=7
8aL	ʒu
8ccJ	.
4cc	ver-
4b-	-laſ-
=8	=8
4a	-ſen.
8r}	.
{8cc	Was
8ff	gibſt
8ee	du
=9	=9
4.dd	mir
8cc	ʒum
8b-	letʒ-
8dd	-ten
=10	=10
4.cc}	Mal,
{8a	daß
8f	ich
8g	an
=11	=11
8aL	dich
8ccJ	.
4cc	ge-
4b-	-den-
=12	=12
4a	-ke?'
4r}	.
==	==
!!!AGN: Ballade, Abschied, Enttaeuschung, Tod, Selbstmord
!! Einzige vollstaendige Melodie aus einer etwas wirren Melodietafel.
!!    Eingeklammerte Noten nicht gespielt. Pause am Liedende korrigert.
!!!ONB: ESAC (Essen Associative Code) Database: BALLADE
!!!AMT: simple triple
!!!AIN: vox
!!!EED: Helmut Schaffrath
!!!EEV: 1.0
!!!source: Deutsche Volkslieder mit ihren Melodien. Herausgegeben vom Deutschen Volksliedarchiv. Dritter Band Balladen. Berlin 1954.
!!!page: 83
!!!ENC: Anna Maria Matuszewska
!!!EEV: 2025/02/18
*-	*-
